icons/actions/24/irc-channel-inactive.svg

<svg xmlns="http://www.w3.org/2000/svg" viewBox="0 0 24 24">
  <defs id="defs3051">
    <style type="text/css" id="current-color-scheme">
      .ColorScheme-Text {
        color:#4d4d4d;
      }
      </style>
  </defs>
  <a transform="translate(1,1)">
 <path 
     style="fill:currentColor;fill-opacity:1;stroke:none" 
     d="M 7 3 L 7 7 L 3 7 L 3 8 L 7 8 L 7 14 L 3 14 L 3 15 L 7 15 L 7 19 L 8 19 L 8 15 L 11 15 L 11 14 L 8 14 L 8 8 L 14 8 L 14 11 L 15 11 L 15 8 L 19 8 L 19 7 L 15 7 L 15 3 L 14 3 L 14 7 L 8 7 L 8 3 L 7 3 z "
     class="ColorScheme-Text"
     />
 <path 
     style="fill:currentColor;fill-opacity:0.51;stroke:none" 
     d="M 15.5 12 C 13.561 12 12 13.561 12 15.5 C 12 17.439 13.561 19 15.5 19 C 17.439 19 19 17.439 19 15.5 C 19 13.561 17.439 12 15.5 12 z "
     class="ColorScheme-Text"
     />
</a>
</svg>

<?xml version="1.0"?>
<!-- Created with Inkscape (http://www.inkscape.org/) -->
<svg xmlns:dc="http://purl.org/dc/elements/1.1/" xmlns:cc="http://creativecommons.org/ns#" xmlns:rdf="http://www.w3.org/1999/02/22-rdf-syntax-ns#" xmlns:svg="http://www.w3.org/2000/svg" xmlns="http://www.w3.org/2000/svg" xmlns:sodipodi="http://sodipodi.sourceforge.net/DTD/sodipodi-0.dtd" xmlns:inkscape="http://www.inkscape.org/namespaces/inkscape" width="24" height="24" id="svg3869" version="1.1" inkscape:version="0.91 r13725" sodipodi:docname="irc-channel-inactive.svg">
  <defs id="defs3871">
    <style type="text/css" id="current-color-scheme">
      .ColorScheme-Text {
        color:#4d4d4d;
      }
      .ColorScheme-Background {
        color:#eff0f1;
      }
      .ColorScheme-Highlight {
        color:#3daee9;
      }
      .ColorScheme-ViewText {
        color:#31363b;
      }
      .ColorScheme-ViewBackground {
        color:#fcfcfc;
      }
      .ColorScheme-ViewHover {
        color:#93cee9;
      }
      .ColorScheme-ViewFocus{
        color:#3daee9;
      }
      .ColorScheme-ButtonText {
        color:#31363b;
      }
      .ColorScheme-ButtonBackground {
        color:#eff0f1;
      }
      .ColorScheme-ButtonHover {
        color:#93cee9;
      }
      .ColorScheme-ButtonFocus{
        color:#3daee9;
      }
      </style>
    <linearGradient id="linearGradient4066">
      <stop offset="0" style="stop-color:#dbc9ee;stop-opacity:1" id="stop4068"/>
      <stop offset="1" style="stop-color:#faf7fd;stop-opacity:1" id="stop4070"/>
    </linearGradient>
    <linearGradient id="linearGradient3843-5">
      <stop id="stop3845-0" style="stop-color:#5a2c8b;stop-opacity:1" offset="0"/>
      <stop id="stop3847-4" style="stop-color:#9d59cf;stop-opacity:1" offset="1"/>
    </linearGradient>
  </defs>
  <sodipodi:namedview id="base" pagecolor="#ffffff" bordercolor="#666666" borderopacity="1.0" inkscape:pageopacity="0.0" inkscape:pageshadow="2" inkscape:zoom="22.627416" inkscape:cx="5.4926209" inkscape:cy="10.264796" inkscape:document-units="px" inkscape:current-layer="layer1" showgrid="true" fit-margin-top="0" fit-margin-left="0" fit-margin-right="0" fit-margin-bottom="0" inkscape:window-width="1366" inkscape:window-height="709" inkscape:window-x="-4" inkscape:window-y="0" inkscape:window-maximized="1" inkscape:showpageshadow="false" inkscape:snap-bbox="true" inkscape:object-nodes="true">
    <inkscape:grid type="xygrid" id="grid4132"/>
    <sodipodi:guide position="4,18" orientation="18,0" id="guide4138"/>
    <sodipodi:guide position="5,3" orientation="0,18" id="guide4140"/>
    <sodipodi:guide position="20,2.0000174" orientation="-18,0" id="guide4142"/>
    <sodipodi:guide position="2,21" orientation="0,-18" id="guide4144"/>
    <sodipodi:guide position="3,19.000017" orientation="16,0" id="guide4146"/>
    <sodipodi:guide position="2,4" orientation="0,16" id="guide4148"/>
    <sodipodi:guide position="21,20" orientation="-16,0" id="guide4150"/>
    <sodipodi:guide position="2,20" orientation="0,-16" id="guide4152"/>
  </sodipodi:namedview>
  <metadata id="metadata3874">
    <rdf:RDF>
      <cc:Work rdf:about="">
        <dc:format>image/svg+xml</dc:format>
        <dc:type rdf:resource="http://purl.org/dc/dcmitype/StillImage"/>
        <dc:title/>
      </cc:Work>
    </rdf:RDF>
  </metadata>
  <g inkscape:label="Capa 1" inkscape:groupmode="layer" id="layer1" transform="translate(-326,-532.3622)">
    <g transform="translate(-226.72253,-49.757061)" id="layer1-7" inkscape:label="Capa 1">
      <path id="rect3312" transform="translate(553.72253,583.11926)" d="m 7,3 0,4 -4,0 0,1 4,0 0,6 -4,0 0,1 4,0 0,4 1,0 0,-4 3,0 0,-1 -3,0 0,-6 6,0 0,3 1,0 0,-3 4,0 0,-1 -4,0 0,-4 -1,0 0,4 L 8,7 8,3 7,3 Z" style="opacity:1;fill:currentColor;fill-opacity:1;stroke:none" inkscape:connector-curvature="0" class="ColorScheme-Text"/>
      <rect ry="3.5" y="595.11926" x="565.72253" height="7" width="7" id="rect4172" style="opacity:1;fill:#bdc3c7;fill-opacity:1;stroke:none;stroke-opacity:1"/>
    </g>
  </g>
</svg>
